X:1
T: The Mysteries of Knock
C:
R:Jig
Q:180
K:D
M:6/8
L:1/16
e2A2A2 e2d2c2|e2A2A2 e2a2f2|e2A2A2 e2d2c2|f2B2B2 B2a2f2|e2A2A2 e2d2c2|e2A2A2 e2a2f2|e2A2A2 e2d2c2|f2d2c2 d4f2|
e2c2c2 a2c2c2|e2c2c2 e2a2f2|e2c2c2 a2c2c2|f2B2B2 B2a2f2|e2c2c2 a2c2c2|e2c2c2 e2f2g2|a2g2f2 e2d2c2|f2B2c2 d4f2|
e2c2c2 a2c2c2|e2c2c2 e2a2f2|e2c2c2 a2c2c2|f2B2B2 B2a2f2|e2c2c2 a2c2c2|e2c2c2 e2f2g2|a2g2f2 e2d2c2|f2B2c2 d4f2|
e2A2A2 e2d2c2|e2A2A2 e2a2f2|e2A2A2 e2d2c2|f2B2B2 B2a2f2|e2A2A2 e2d2c2|e2A2A2 e2a2f2|e2A2A2 e2d2c2|f2d2c2 d6||
